src/assets/Imgs/profile/message.svg

<svg fill="none" height="32" viewBox="0 0 32 32" width="32" xmlns="http://www.w3.org/2000/svg"><rect fill="#f9b617" height="32" rx="8" width="32"/><path clip-rule="evenodd" d="m19.4573 10c.9387 0 1.8417.371 2.506 1.0367.665.6643 1.0367 1.5603 1.0367 2.4983v5.53c0 1.953-1.589 3.535-3.5427 3.535h-6.9153c-1.9537 0-3.542-1.582-3.542-3.535v-5.53c0-1.953 1.5813-3.535 3.542-3.535zm1.1141 4.5778.056-.056c.1673-.203.1673-.497-.0077-.7-.0973-.1043-.231-.168-.3703-.182-.147-.0077-.287.042-.3927.14l-3.1563 2.52c-.406.3367-.9877.3367-1.4 0l-3.15-2.52c-.2177-.161-.5187-.14-.7.049-.189.189-.21.49-.0497.7l.0917.091 3.185 2.485c.392.308.8673.476 1.365.476.4963 0 .98-.168 1.3713-.476z" fill="#fff" fill-rule="evenodd"/></svg>

<svg width="32" height="32" viewBox="0 0 32 32" fill="none" xmlns="http://www.w3.org/2000/svg">
<g id="Dis">
<rect id="Rectangle 2058" width="32" height="32" rx="8" fill="#F9B617"/>
<g id="Message">
<path id="Message_2" fill-rule="evenodd" clip-rule="evenodd" d="M19.4573 10C20.396 10 21.299 10.371 21.9633 11.0367C22.6283 11.701 23 12.597 23 13.535V19.065C23 21.018 21.411 22.6 19.4573 22.6H12.542C10.5883 22.6 9 21.018 9 19.065V13.535C9 11.582 10.5813 10 12.542 10H19.4573ZM20.5714 14.5778L20.6274 14.5218C20.7947 14.3188 20.7947 14.0248 20.6197 13.8218C20.5224 13.7175 20.3887 13.6538 20.2494 13.6398C20.1024 13.6321 19.9624 13.6818 19.8567 13.7798L16.7004 16.2998C16.2944 16.6365 15.7127 16.6365 15.3004 16.2998L12.1504 13.7798C11.9327 13.6188 11.6317 13.6398 11.4504 13.8288C11.2614 14.0178 11.2404 14.3188 11.4007 14.5288L11.4924 14.6198L14.6774 17.1048C15.0694 17.4128 15.5447 17.5808 16.0424 17.5808C16.5387 17.5808 17.0224 17.4128 17.4137 17.1048L20.5714 14.5778Z" fill="white"/>
</g>
</g>
</svg>
